icons/1_Primary/Vultr.svg

<svg xmlns="http://www.w3.org/2000/svg" width="1024" height="1024" fill="none">
   <g clip-path="url(#a)">
      <path fill="#9ABEFF" d="M512 1024c282.77 0 512-229.23 512-512S794.77 0 512 0 0 229.23 0 512s229.23 512 512 512Z"/>
      <path fill="#fff" d="M259.94 357.38a25.6 25.6 0 0 1 21.66-39.25h131.13a25.563 25.563 0 0 1 21.65 12l181.91 288.49a25.599 25.599 0 0 1 0 27.3l-65.57 104a25.596 25.596 0 0 1-21.66 11.954 25.594 25.594 0 0 1-21.66-11.954L259.94 357.38Zm395.23 158.15a25.61 25.61 0 0 0 43.32 0l22.58-35.81 43-68.19a25.633 25.633 0 0 0 0-27.32l-34.13-54.13a25.572 25.572 0 0 0-21.66-12H577.13a25.606 25.606 0 0 0-25.592 26.344 25.6 25.6 0 0 0 3.932 12.906l99.7 158.2Z"/>
   </g>
   <defs>
      <clipPath id="a">
         <path fill="#fff" d="M0 0h1024v1024H0z"/>
      </clipPath>
   </defs>
</svg>

<svg width="1024" height="1024" viewBox="0 0 1024 1024" fill="none" xmlns="http://www.w3.org/2000/svg">
<g clip-path="url(#clip0_2_3873)">
<path d="M512 1024C794.77 1024 1024 794.77 1024 512C1024 229.23 794.77 0 512 0C229.23 0 0 229.23 0 512C0 794.77 229.23 1024 512 1024Z" fill="#9ABEFF"/>
<path d="M259.94 357.38C257.499 353.507 256.141 349.05 256.008 344.474C255.875 339.898 256.971 335.37 259.183 331.361C261.395 327.353 264.642 324.011 268.584 321.684C272.527 319.357 277.022 318.13 281.6 318.13H412.73C417.059 318.133 421.317 319.236 425.104 321.334C428.891 323.433 432.083 326.46 434.38 330.13L616.29 618.62C618.866 622.707 620.233 627.439 620.233 632.27C620.233 637.101 618.866 641.833 616.29 645.92L550.72 749.92C548.414 753.581 545.217 756.597 541.43 758.687C537.642 760.778 533.386 761.874 529.06 761.874C524.733 761.874 520.478 760.778 516.69 758.687C512.902 756.597 509.706 753.581 507.4 749.92L259.94 357.38ZM655.17 515.53C657.478 519.188 660.674 522.202 664.462 524.291C668.249 526.38 672.504 527.476 676.83 527.476C681.155 527.476 685.41 526.38 689.198 524.291C692.985 522.202 696.182 519.188 698.49 515.53L721.07 479.72L764.07 411.53C766.646 407.44 768.013 402.704 768.013 397.87C768.013 393.036 766.646 388.3 764.07 384.21L729.94 330.08C727.641 326.409 724.448 323.382 720.659 321.283C716.871 319.184 712.611 318.082 708.28 318.08H577.13C572.552 318.08 568.057 319.307 564.114 321.634C560.172 323.961 556.925 327.303 554.713 331.311C552.501 335.32 551.405 339.848 551.538 344.424C551.671 349 553.029 353.457 555.47 357.33L655.17 515.53Z" fill="white"/>
</g>
<defs>
<clipPath id="clip0_2_3873">
<rect width="1024" height="1024" fill="white"/>
</clipPath>
</defs>
</svg>
